X:1
T:Ich steh an deiner Krippen hier
T:Ich steh an deiner Krippen hier
T:BWV 469
T:Johann Sebastian Bach?
C:Johann Sebastian Bach?
%%score 1 2
L:1/8
Q:1/4=94
M:4/4
K:Gmin
V:1 treble 
V:2 bass 
V:1
 B2 | e2 B2 c2 B2 | _A3 B G2 B2 | e2 B2 c2 B2 | _A3 B G2 G2 :| A2 =B2 cedc | =B4 c2 x2 |] x8 | x8 | %9
w: Nimm|hin, es ist mein|Geist und Sinn, Herz,|Seel und Mut, nimm|al- les hin und|lass dir's wohl * ge- *|fal- len.|||
 x6 :| x2 | x8 | x8 | x8 | x8 | x8 | x6 |] %17
w: ||||||||
V:2
 G2 | c2 d2 e2 c2 | B3 _A G2 B2 | E3 D E2 F2 | G4 G2 x2 :| C,D, x6 | E,D,C,=B,, C,D,E,C, |] %7
w: Ich|steh an dei- ner|Krip- pen hier, o|Je- su- lein, mein|Le- ben.|||
w: Ich|kom- me, bring und|schen- ke dir, was|du mir hast ge-|ge- ben.|||
 D,B,, C,D, E,2 E,D, | C,G,CB, _A,G, A,2 | G,4 G,,2 :| G,F, | E,F,G,E, _A,3 G, | %12
w: |||||
w: |||||
 F,E,D,B,, E,2 E,D, | C,D,E,D, E,F,G,E, | F,2 B,,2 E,2 C,2 | F,E,F,D, E,2 F,2 | G,2 G,,2 C,2 |] %17
w: |||||
w: |||||

